assets/logos/chatbase.svg

<svg width="80" height="80" viewBox="0 0 80 80" fill="none" xmlns="http://www.w3.org/2000/svg">
<path d="M50.0695 18H29.9366C24.1186 18 18.539 20.3112 14.4251 24.4251C10.3112 28.539 8 34.1186 8 39.9366H8C8 40.2412 8.00846 40.541 8.02055 40.8457V59.0117C8.02055 61.7607 11.5263 62.9225 13.1668 60.7162L16.015 56.8889C19.9351 60.1177 24.8579 61.8797 29.9366 61.8719H50.0695C55.8863 61.8706 61.4644 59.559 65.577 55.4455C69.6896 51.332 72 45.7533 72 39.9366C72 34.1197 69.6897 28.5409 65.5771 24.4272C61.4645 20.3135 55.8864 18.0016 50.0695 18Z" fill="#FFC200"/>
<g filter="url(#filter0_d_9912_1321)">
<path d="M49.8978 24.0251H29.8555C25.5566 24.0251 21.4337 25.7328 18.3937 28.7725C15.3538 31.8122 13.6458 35.935 13.6455 40.234C13.6458 44.5329 15.3538 48.6557 18.3937 51.6954C21.4337 54.7351 25.5566 56.4428 29.8555 56.4428H49.8978C52.0264 56.4428 54.1341 56.0236 56.1006 55.209C58.0672 54.3944 59.854 53.2005 61.3592 51.6954C62.8643 50.1902 64.0582 48.4034 64.8728 46.4368C65.6874 44.4703 66.1066 42.3626 66.1066 40.234C66.1066 38.1054 65.6874 35.9977 64.8728 34.0311C64.0582 32.0646 62.8643 30.2777 61.3592 28.7726C59.854 27.2675 58.0672 26.0735 56.1006 25.259C54.1341 24.4444 52.0264 24.0251 49.8978 24.0251ZM26.8333 43.5524C26.1226 43.5526 25.4278 43.3421 24.8368 42.9474C24.2458 42.5527 23.7851 41.9916 23.513 41.335C23.2409 40.6785 23.1697 39.956 23.3083 39.2589C23.4468 38.5619 23.7891 37.9216 24.2916 37.419C24.7941 36.9165 25.4344 36.5743 26.1315 36.4357C26.8285 36.2971 27.551 36.3684 28.2076 36.6405C28.8641 36.9125 29.4252 37.3732 29.8199 37.9642C30.2146 38.5553 30.4252 39.2501 30.4249 39.9608C30.4246 40.9132 30.0461 41.8266 29.3726 42.5001C28.6991 43.1736 27.7858 43.5521 26.8333 43.5524ZM53.0336 43.5524C52.323 43.5524 51.6283 43.3416 51.0375 42.9468C50.4466 42.552 49.9861 41.9908 49.7142 41.3342C49.4423 40.6776 49.3712 39.9552 49.5099 39.2582C49.6487 38.5612 49.991 37.921 50.4936 37.4186C50.9962 36.9162 51.6364 36.5741 52.3335 36.4356C53.0305 36.2971 53.7529 36.3684 54.4094 36.6406C55.0659 36.9127 55.6269 37.3734 56.0216 37.9644C56.4162 38.5554 56.6267 39.2501 56.6265 39.9608C56.6265 40.4325 56.5335 40.8997 56.353 41.3355C56.1724 41.7713 55.9077 42.1673 55.5741 42.5009C55.2404 42.8344 54.8444 43.0989 54.4085 43.2793C53.9726 43.4598 53.5054 43.5525 53.0336 43.5524Z" fill="white"/>
</g>
<defs>
<filter id="filter0_d_9912_1321" x="9.64551" y="21.0251" width="60.4612" height="40.4177" filterUnits="userSpaceOnUse" color-interpolation-filters="sRGB">
<feFlood flood-opacity="0" result="BackgroundImageFix"/>
<feColorMatrix in="SourceAlpha" type="matrix" values="0 0 0 0 0 0 0 0 0 0 0 0 0 0 0 0 0 0 127 0" result="hardAlpha"/>
<feOffset dy="1"/>
<feGaussianBlur stdDeviation="2"/>
<feColorMatrix type="matrix" values="0 0 0 0 0.804167 0 0 0 0 0.611797 0 0 0 0 0 0 0 0 0.5 0"/>
<feBlend mode="normal" in2="BackgroundImageFix" result="effect1_dropShadow_9912_1321"/>
<feBlend mode="normal" in="SourceGraphic" in2="effect1_dropShadow_9912_1321" result="shape"/>
</filter>
</defs>
</svg>

<svg xmlns="http://www.w3.org/2000/svg" width="80" height="80" fill="none" viewBox="0 0 80 80"><path fill="#ffc200" d="M50.07 18H29.937A21.937 21.937 0 0 0 8 39.937c0 .304.008.604.02.909v18.166c0 2.749 3.506 3.91 5.147 1.704l2.848-3.827a21.85 21.85 0 0 0 13.922 4.983h20.132a21.935 21.935 0 0 0 0-43.872"/><g filter="url(#a)"><path fill="#fff" d="M49.898 24.025H29.855a16.21 16.21 0 0 0-11.461 27.67 16.2 16.2 0 0 0 11.462 4.748h20.042a16.208 16.208 0 1 0 0-32.418M26.833 43.552a3.593 3.593 0 1 1-.002-7.186 3.593 3.593 0 0 1 .002 7.186m26.2 0a3.593 3.593 0 1 1 0-7.185 3.593 3.593 0 0 1 0 7.185"/></g><defs><filter id="a" width="60.461" height="40.418" x="9.646" y="21.025" color-interpolation-filters="sRGB" filterUnits="userSpaceOnUse"><feFlood flood-opacity="0" result="BackgroundImageFix"/><feColorMatrix in="SourceAlpha" result="hardAlpha" values="0 0 0 0 0 0 0 0 0 0 0 0 0 0 0 0 0 0 127 0"/><feOffset dy="1"/><feGaussianBlur stdDeviation="2"/><feColorMatrix values="0 0 0 0 0.804167 0 0 0 0 0.611797 0 0 0 0 0 0 0 0 0.5 0"/><feBlend in2="BackgroundImageFix" result="effect1_dropShadow_9912_1321"/><feBlend in="SourceGraphic" in2="effect1_dropShadow_9912_1321" result="shape"/></filter></defs></svg>
